img/image/design/logo.svg

<svg xmlns="http://www.w3.org/2000/svg" fill="none" viewBox="0.68 -0.06 140 173.51">
<g clip-path="url(#clip0_202_2306)">
<path d="M82.729 128.661C94.563 123.997 103.17 112.948 104.389 99.7452H123.538C123.61 99.8887 123.682 100.032 123.825 100.176C114.717 114.598 100.014 125.145 82.729 128.661ZM16.1716 100.104C16.2433 100.032 16.2433 99.8887 16.315 99.7452H35.608C36.8273 112.876 45.4339 123.926 57.2679 128.661C39.983 125.145 25.2085 114.598 16.0998 100.104H16.1716ZM9.71665 46.3619C9.42976 48.0839 9.28632 49.8777 9.28632 51.6715C9.28632 63.6541 15.3826 74.2016 24.7064 80.444L15.024 97.3774C14.8806 97.3057 14.6654 97.3057 14.522 97.3057C9.42976 88.1215 6.48919 77.6457 6.48919 66.4524C6.48919 59.4925 7.63673 52.7478 9.71665 46.5054V46.3619ZM68.313 2.80855C68.4564 3.0238 68.5998 3.23906 68.7433 3.38256L58.9175 20.603C54.3273 18.3787 49.2351 17.1589 43.856 17.1589C35.3929 17.1589 27.647 20.2442 21.6224 25.3386C32.9544 11.9928 49.6654 3.38256 68.3847 2.8803L68.313 2.80855ZM117.872 24.5493C111.92 19.742 104.389 16.8002 96.1408 16.8002C90.69 16.8002 85.5978 18.0917 81.0076 20.316L71.3253 3.38256C71.4687 3.23906 71.6839 3.0238 71.7556 2.80855C90.1162 3.31081 106.54 11.634 117.872 24.5493ZM102.667 85.2514C106.684 84.4621 110.413 83.0271 113.784 81.018L123.538 98.095H104.532C104.532 97.5927 104.604 97.0904 104.604 96.5882C104.604 92.6418 103.958 88.839 102.667 85.2514ZM89.0404 98.095L95.9974 85.8971H96.0691C98.0773 85.8971 100.086 85.6819 102.022 85.3949C103.241 88.9107 103.958 92.6418 103.958 96.5882C103.958 97.0904 103.958 97.5927 103.887 98.095H89.0404ZM71.7556 129.881C71.6121 129.666 71.4687 129.451 71.2535 129.235L88.108 99.7452H103.815C102.452 114.024 92.1962 125.791 78.6408 129.379C76.4175 129.666 74.1224 129.881 71.8273 129.953L71.7556 129.881ZM52.0322 99.7452L68.8867 129.235C68.6716 129.379 68.5281 129.594 68.3847 129.881C66.0896 129.809 63.7945 129.666 61.5712 129.307C48.0158 125.791 37.688 114.024 36.397 99.6735H52.1039L52.0322 99.7452ZM36.1818 96.5164C36.1818 92.7136 36.8273 89.0542 37.9748 85.6819C39.9113 86.0406 41.8478 86.1842 43.856 86.1842C43.9994 86.1842 44.1429 86.1842 44.2863 86.1842L51.0998 98.095H36.2535C36.2535 97.5927 36.1818 97.0904 36.1818 96.5882V96.5164ZM37.3294 85.5384C36.1818 88.9825 35.5363 92.6418 35.5363 96.5164C35.5363 97.0187 35.5363 97.5209 35.608 98.0232H16.6019L26.2126 81.2333C29.5835 83.2423 33.3847 84.7491 37.4011 85.5384H37.3294ZM33.815 67.8157L40.2699 79.0807C39.1941 80.9463 38.2617 82.8836 37.5445 84.8926C33.5998 84.1751 29.8703 82.6683 26.4994 80.6593L33.8867 67.7439L33.815 67.8157ZM69.3888 29.4285C68.3847 30.6483 67.4523 32.0115 66.5917 33.3748H53.5384L60.1367 21.8945C63.6511 23.8318 66.8068 26.4149 69.4605 29.4285H69.3888ZM86.5302 33.3748H73.1183C72.2576 32.0115 71.2535 30.6483 70.2494 29.4285C72.9031 26.2714 76.1306 23.6166 79.7884 21.6075L86.5302 33.4466V33.3748ZM99.7986 79.0807L106.254 67.8157L113.426 80.3723C110.055 82.3813 106.397 83.8163 102.452 84.5339C101.735 82.5966 100.874 80.8028 99.8703 79.009L99.7986 79.0807ZM99.44 79.7265C100.372 81.305 101.161 82.9553 101.735 84.6774C99.9421 84.9644 98.149 85.1796 96.2843 85.1796L99.3683 79.7265H99.44ZM80.5056 81.3768L88.2515 67.9592C92.3396 70.5423 95.7822 74.0581 98.4359 78.0762L94.4195 85.1079C89.399 84.8926 84.7371 83.5293 80.5056 81.3768ZM70.8949 98.0232L80.2187 81.9508C84.4503 84.1033 89.1121 85.4666 94.0609 85.7536L87.0322 98.0232H70.8949ZM70.3212 99.6735H86.0999L70.3212 127.37V99.6735ZM69.6757 99.6735V127.37L53.897 99.6735H69.6757ZM59.9216 82.0943L69.1019 98.0232H52.9646L46.1511 86.0406C51.0998 85.6819 55.7617 84.3186 59.9216 82.0943ZM42.6367 52.2455H42.7085L51.4585 67.3134C47.3703 69.8965 43.9277 73.3406 41.274 77.3587L34.8191 66.0219L42.7085 52.1738L42.6367 52.2455ZM41.274 51.3128L33.815 64.3716L17.3191 35.4556L41.274 51.3128ZM41.5609 50.7388L17.6777 34.9534H50.5261L41.4892 50.7388H41.5609ZM61.4994 51.241V51.3128H43.1388L52.4626 34.9534H65.5158C62.9339 39.8325 61.4277 45.3574 61.4277 51.1693L61.4994 51.241ZM96.7863 51.3128H78.2822C78.2105 45.4291 76.7044 39.8325 74.0507 34.9534H87.4626L96.7863 51.3128ZM98.3642 50.667L89.399 35.0251H122.534L98.3642 50.667ZM98.6511 51.241L122.534 35.7426L106.182 64.4434L98.6511 51.241ZM97.2884 52.2455L105.249 66.0936L98.7945 77.4304C96.1408 73.4123 92.6265 69.9682 88.6101 67.3852L97.3601 52.2455H97.2884ZM77.9236 62.8648C77.9236 62.7931 77.9236 62.7931 77.9236 62.7213C77.9236 62.0038 77.4933 61.358 76.9195 61.071C77.6367 58.488 78.0671 55.8331 78.2105 53.0348H94.9216L87.104 66.5242C84.2351 64.8739 81.2228 63.6541 77.9236 62.8648ZM71.3253 74.4169C71.6839 74.0581 71.8273 73.6276 71.8273 73.1253C71.8273 72.6948 71.6839 72.3361 71.4687 72.049C73.19 69.753 74.5527 67.2417 75.6285 64.5869C75.7003 64.5869 75.8437 64.5869 75.9154 64.5869C76.7044 64.5869 77.3498 64.0846 77.6367 63.4388C80.8642 64.2281 83.8765 65.4479 86.6736 67.0264L78.9277 80.5158C76.0589 78.8655 73.4769 76.7847 71.2535 74.4169H71.3253ZM62.0015 63.5106C62.2884 64.1563 62.9339 64.5869 63.7228 64.5869C63.8662 64.5869 64.0097 64.5869 64.1531 64.5151C65.3007 67.1699 66.7351 69.6812 68.3847 71.9055C68.1695 72.1926 68.0261 72.6231 68.0261 73.0536C68.0261 73.6276 68.2412 74.1299 68.6716 74.4886C66.4482 76.9282 63.8662 79.009 60.9974 80.731L53.108 67.0264C55.8335 65.4479 58.8457 64.2281 62.0015 63.5106ZM62.9339 60.9993C62.2884 61.2863 61.858 61.932 61.858 62.7213C61.858 62.7931 61.858 62.8648 61.858 62.9366C58.6306 63.7258 55.6183 64.9456 52.8212 66.5242L45.0035 53.0348H61.5712C61.7146 55.7614 62.2167 58.488 62.9339 60.9993ZM76.0589 60.784C75.1982 60.784 74.4093 61.358 74.1941 62.219C72.8314 62.0755 71.397 61.932 69.9626 61.932C68.4564 61.932 67.022 62.0038 65.5876 62.219C65.3724 61.4298 64.6552 60.784 63.7228 60.784C63.6511 60.784 63.5794 60.784 63.5076 60.784C62.7904 58.2727 62.2884 55.6896 62.1449 52.9631H77.565C77.4216 55.6896 76.9912 58.2727 76.3457 60.784C76.274 60.784 76.1306 60.784 76.0589 60.784ZM71.1101 71.5468C70.8232 71.3315 70.3929 71.188 69.9626 71.188C69.5322 71.188 69.1736 71.3315 68.8867 71.5468C67.2371 69.3225 65.8744 66.8829 64.7269 64.2999C65.2289 64.0128 65.5876 63.4388 65.5876 62.8648C67.022 62.6496 68.4564 62.5778 69.8908 62.5778C71.3253 62.5778 72.688 62.6496 74.0507 62.8648C74.1224 63.5106 74.481 64.0846 75.0548 64.4434C73.979 67.0264 72.6162 69.3942 71.0384 71.6185L71.1101 71.5468ZM69.9626 96.2294L61.356 81.305C64.2966 79.583 66.9503 77.4304 69.2453 74.9191C69.4605 74.9909 69.7474 75.0626 70.0343 75.0626C70.3212 75.0626 70.608 74.9909 70.8949 74.8474C73.19 77.2869 75.8437 79.4395 78.7843 81.0898L70.0343 96.2294H69.9626ZM67.2371 33.3031C68.0261 32.0833 68.815 30.9353 69.7474 29.859C70.6798 30.9353 71.5404 32.0833 72.2576 33.3031H67.2371ZM73.2617 34.9534C75.9871 39.7607 77.565 45.3574 77.565 51.3128H62.0732V51.241C62.0732 45.3574 63.5794 39.8325 66.233 35.0251H73.2617V34.9534ZM43.7843 85.4666H43.7126C41.7761 85.4666 39.9113 85.3231 38.0466 84.9644C38.6921 83.0988 39.5527 81.3768 40.4851 79.6547L43.7843 85.4666ZM41.4892 78.0762C44.1429 73.9863 47.5855 70.5423 51.6736 67.9592L59.563 81.592C55.4031 83.8163 50.6695 85.1796 45.7207 85.4666L41.5609 78.1479L41.4892 78.0762ZM129.85 51.241C129.85 63.0083 123.825 73.3406 114.717 79.4395L107.114 66.0936L124.686 35.3121C124.901 35.4556 125.188 35.5274 125.475 35.5274C125.475 35.5274 125.475 35.5274 125.547 35.5274C126.622 37.4647 127.555 39.402 128.415 41.411C129.348 44.4963 129.85 47.7969 129.85 51.241ZM120.67 28.0652C121.745 29.5002 122.821 31.007 123.754 32.5856C123.61 32.8008 123.538 33.0161 123.538 33.3031H88.3232L81.1511 20.7465C85.5978 18.5939 90.6183 17.3024 95.9257 17.3024C105.68 17.3024 114.43 21.464 120.67 28.0652ZM79.358 20.9618C75.7003 22.9708 72.4011 25.6974 69.6757 28.8545C67.022 25.8409 63.8662 23.2578 60.2802 21.2488L69.8908 4.38709L79.358 20.89V20.9618ZM43.7126 17.6612C49.0199 17.6612 54.0404 18.881 58.4871 21.0335L51.4585 33.3031H16.1716C16.1716 33.0878 16.0998 32.8726 15.9564 32.6573C16.7453 31.3658 17.606 30.146 18.4667 28.9262C24.7064 22.038 33.6716 17.7329 43.6408 17.7329L43.7126 17.6612ZM11.2945 41.8415C12.2269 39.6172 13.231 37.5364 14.3785 35.4556C14.6654 35.4556 14.9523 35.3839 15.1675 35.2404L32.7392 66.0936L24.9216 79.7982C15.813 73.6993 9.86009 63.3671 9.86009 51.5998C9.86009 48.2274 10.3621 44.9269 11.2945 41.8415ZM125.618 96.9469C125.475 96.9469 125.331 96.8752 125.188 96.8752C125.045 96.8752 124.901 96.8752 124.758 96.9469L115.075 80.0135C124.399 73.8428 130.495 63.2236 130.495 51.241C130.495 49.3755 130.352 47.5099 130.065 45.7161C132.288 52.1738 133.508 59.062 133.508 66.3089C133.508 77.4304 130.639 87.9062 125.618 97.0187V96.9469ZM135.229 66.2372C135.229 54.9721 132.432 44.2093 127.124 34.6664C127.34 34.3793 127.483 33.9488 127.483 33.5901C127.483 32.5138 126.622 31.6528 125.547 31.6528C125.475 31.6528 125.403 31.6528 125.331 31.6528C122.749 27.4912 119.665 23.6166 116.151 20.1007C104.245 8.18993 88.5384 1.44526 71.7556 1.01475C71.4687 0.368987 70.8232 -0.0615234 70.0343 -0.0615234C69.2453 -0.0615234 68.5998 0.368987 68.313 1.01475C51.5302 1.44526 35.8232 8.18993 23.9175 20.1007C20.4031 23.6166 17.3191 27.4912 14.7371 31.581C14.6654 31.581 14.522 31.581 14.4503 31.581C13.3744 31.581 12.5138 32.442 12.5138 33.5183C12.5138 33.9488 12.6572 34.3793 12.9441 34.6664C7.63673 44.2093 4.8396 54.9721 4.8396 66.2372C4.8396 77.5022 7.70845 88.3367 13.0158 97.8797C12.8007 98.1667 12.6572 98.5972 12.6572 99.0277C12.6572 100.104 13.5179 100.965 14.5937 100.965C14.6654 100.965 14.7371 100.965 14.8806 100.965C17.4626 105.055 20.5466 108.929 23.9892 112.374C35.8949 124.284 51.6019 131.029 68.3847 131.46C68.6716 132.105 69.3171 132.536 70.106 132.536C70.8949 132.536 71.5404 132.105 71.8273 131.46C88.6101 131.029 104.317 124.284 116.223 112.374C119.809 108.786 122.893 104.911 125.475 100.678C126.479 100.606 127.268 99.7452 127.268 98.7407C127.268 98.4537 127.196 98.1667 127.124 97.9514C132.504 88.3367 135.372 77.5022 135.372 66.1654L135.229 66.2372Z" fill="#E6E6E6"/>
<path d="M2.75961 164.537H6.63256C7.63665 164.537 8.42559 164.25 8.99936 163.676C9.57313 163.102 9.93174 162.313 9.93174 161.308C9.93174 160.447 9.64485 159.73 9.1428 159.084C8.56903 158.438 7.85182 158.079 6.776 158.079H2.75961V164.537ZM2.75961 173.076H0.679688V156.286H6.63256C8.49731 156.286 9.86002 156.788 10.7207 157.792C11.5813 158.797 12.0834 159.945 12.0834 161.237C12.0834 162.672 11.5813 163.891 10.649 164.824C9.71657 165.757 8.42559 166.259 6.84772 166.259H2.75961V173.076Z" fill="#E6E6E6"/>
<path d="M14.7371 173.076H16.8887V156.286H14.7371V173.076Z" fill="#E6E6E6"/>
<path d="M23.2003 164.537H27.0732C28.0773 164.537 28.8663 164.25 29.44 163.676C30.0138 163.102 30.3724 162.313 30.3724 161.308C30.3724 160.447 30.0855 159.73 29.5835 159.084C29.0097 158.438 28.2925 158.079 27.2167 158.079H23.2003V164.537ZM23.2003 173.076H21.1204V156.286H27.0732C28.938 156.286 30.3007 156.788 31.1613 157.792C32.022 158.797 32.5241 159.945 32.5241 161.237C32.5241 162.672 32.022 163.891 31.0896 164.824C30.1572 165.757 28.8663 166.259 27.2884 166.259H23.2003V173.076Z" fill="#E6E6E6"/>
<path d="M41.2021 166.618L38.6201 158.51L36.0382 166.618H41.2738H41.2021ZM45.5054 173.076H43.3538L41.6324 168.196H35.3927L33.8865 173.076H32.0935L37.5443 156.286H39.9111L45.4337 173.076H45.5054Z" fill="#E6E6E6"/>
<path d="M63.8663 171.21V173.076H53.9688V156.286H56.1204V171.21H63.8663Z" fill="#E6E6E6"/>
<path d="M71.6121 171.712C73.0465 171.712 74.194 171.067 75.0547 169.703C75.9153 168.34 76.2739 166.618 76.2739 164.537C76.2739 162.385 75.8436 160.663 74.983 159.443C74.1223 158.223 72.9748 157.649 71.5403 157.649C70.1059 157.649 68.9584 158.295 68.0977 159.586C67.2371 160.878 66.8067 162.6 66.8067 164.681C66.8067 166.762 67.2371 168.412 68.0977 169.703C68.9584 170.995 70.1059 171.641 71.5403 171.641L71.6121 171.712ZM71.5403 173.434C69.3887 173.434 67.6674 172.573 66.5198 170.923C65.3006 169.273 64.7268 167.192 64.7268 164.752C64.7268 162.241 65.3723 160.089 66.5916 158.438C67.8825 156.788 69.5321 155.927 71.6121 155.927C73.692 155.927 75.3416 156.716 76.6325 158.367C77.9235 160.017 78.4973 162.026 78.4973 164.537C78.4973 166.905 77.9235 168.986 76.7043 170.78C75.485 172.573 73.7637 173.434 71.6121 173.434H71.5403Z" fill="#E6E6E6"/>
<path d="M91.192 156.286H92.9133V167.264C92.9133 169.488 92.3395 171.066 91.2637 171.999C90.1879 172.932 88.7535 173.434 87.0321 173.434C85.0957 173.434 83.6612 172.932 82.7289 171.928C81.7965 170.923 81.2944 169.344 81.2944 167.264V156.286H83.3744V167.264C83.3744 168.555 83.5178 169.488 83.8047 169.99C84.0916 170.492 84.5936 170.923 85.1674 171.138C85.8129 171.425 86.4584 171.497 87.1039 171.497C88.3948 171.497 89.3989 171.138 90.0444 170.492C90.6899 169.775 91.0485 168.699 91.0485 167.192V156.214L91.192 156.286Z" fill="#E6E6E6"/>
<path d="M109.266 173.076H107.258L98.5793 158.438V159.514C98.5793 159.945 98.651 160.304 98.651 160.591V173.076H96.9297V156.286H99.5834L107.688 169.99V168.842C107.688 168.412 107.688 167.981 107.688 167.622V156.286H109.337V173.076H109.266Z" fill="#E6E6E6"/>
<path d="M125.905 164.609V173.291H124.614L124.04 171.21C123.036 172.717 121.458 173.434 119.45 173.434C117.227 173.434 115.505 172.573 114.286 170.923C113.067 169.273 112.421 167.264 112.421 164.824C112.421 162.313 113.067 160.16 114.358 158.438C115.649 156.716 117.442 155.855 119.665 155.855C122.749 155.855 124.757 157.506 125.69 160.734L123.682 161.237C123.395 160.017 122.821 159.084 122.104 158.51C121.315 157.936 120.454 157.649 119.522 157.649C117.872 157.649 116.653 158.295 115.864 159.658C115.075 161.021 114.716 162.672 114.716 164.681C114.716 166.833 115.147 168.555 116.007 169.775C116.868 170.995 118.087 171.641 119.594 171.641C120.741 171.641 121.745 171.282 122.534 170.493C123.323 169.703 123.753 168.627 123.753 167.264C123.753 166.977 123.753 166.69 123.753 166.331H119.594V164.537H125.905V164.609Z" fill="#E6E6E6"/>
<path d="M140.68 171.21V173.076H129.778V156.286H140.393V158.079H131.858V163.461H138.672V165.183H131.858V171.21H140.68Z" fill="#E6E6E6"/>
</g>
<defs>
<clipPath id="clip0_202_2306">
<rect width="140" height="173.444" fill="white" transform="translate(0.679688)"/>
</clipPath>
</defs>
</svg>

<svg xmlns="http://www.w3.org/2000/svg" fill="none" viewBox="0.68 -0.06 140 173.51"><g clip-path="url(#a)" fill="#E6E6E6"><path d="M82.729 128.661c11.834-4.664 20.441-15.713 21.66-28.916h19.149c.072.144.144.287.287.431-9.108 14.422-23.811 24.969-41.096 28.485Zm-66.557-28.557c.071-.072.071-.215.143-.359h19.293c1.22 13.131 9.826 24.181 21.66 28.916-17.285-3.516-32.06-14.063-41.168-28.557h.072ZM9.717 46.362a32.475 32.475 0 0 0-.43 5.31c0 11.982 6.096 22.53 15.42 28.772l-9.683 16.933c-.143-.071-.359-.071-.502-.071-5.092-9.184-8.033-19.66-8.033-30.854 0-6.96 1.148-13.704 3.228-19.947v-.143ZM68.313 2.809c.143.215.287.43.43.574l-9.825 17.22a34.377 34.377 0 0 0-15.062-3.444c-8.463 0-16.209 3.085-22.234 8.18C32.954 11.993 49.665 3.383 68.385 2.88l-.072-.071Zm49.559 21.74c-5.952-4.807-13.483-7.749-21.731-7.749-5.451 0-10.543 1.292-15.133 3.516L71.325 3.383c.144-.144.359-.36.43-.574 18.361.502 34.785 8.825 46.117 21.74Zm-15.205 60.702a34.688 34.688 0 0 0 11.117-4.233l9.754 17.077h-19.006c0-.502.072-1.005.072-1.507 0-3.946-.646-7.749-1.937-11.337ZM89.04 98.095l6.957-12.198h.072c2.008 0 4.017-.215 5.953-.502 1.219 3.516 1.936 7.247 1.936 11.193 0 .502 0 1.005-.071 1.507H89.04Zm-17.284 31.786c-.144-.215-.287-.43-.502-.646l16.854-29.49h15.707c-1.363 14.279-11.619 26.046-25.174 29.634-2.224.287-4.519.502-6.814.574l-.071-.072ZM52.032 99.745l16.855 29.49c-.215.144-.359.359-.502.646-2.295-.072-4.59-.215-6.814-.574-13.555-3.516-23.883-15.283-25.174-29.633h15.707l-.072.071Zm-15.85-3.229c0-3.802.645-7.462 1.793-10.834 1.936.359 3.873.502 5.881.502h.43L51.1 98.095H36.254c0-.502-.072-1.005-.072-1.507v-.072Zm1.147-10.978a34.53 34.53 0 0 0-1.793 10.978c0 .503 0 1.005.072 1.507H16.602l9.61-16.79a35.217 35.217 0 0 0 11.19 4.305h-.073Zm-3.514-17.722L40.27 79.08c-1.076 1.865-2.008 3.803-2.726 5.812-3.944-.718-7.674-2.225-11.045-4.234l7.388-12.915-.072.072Zm35.574-38.388c-1.004 1.22-1.937 2.583-2.797 3.947H53.538l6.599-11.48c3.514 1.937 6.67 4.52 9.323 7.534h-.071Zm17.141 3.947H73.118a39.637 39.637 0 0 0-2.869-3.947 33.558 33.558 0 0 1 9.54-7.82l6.741 11.839v-.072ZM99.8 79.08l6.455-11.265 7.172 12.556c-3.371 2.01-7.029 3.444-10.974 4.162-.717-1.937-1.578-3.731-2.582-5.525l-.071.072Zm-.359.645c.932 1.579 1.721 3.23 2.295 4.951-1.793.287-3.586.503-5.45.503l3.083-5.454h.072Zm-18.934 1.65L88.25 67.96c4.089 2.583 7.531 6.1 10.185 10.117l-4.017 7.032c-5.02-.215-9.682-1.579-13.913-3.731Zm-9.611 16.647 9.324-16.072c4.231 2.152 8.893 3.516 13.842 3.803l-7.029 12.27H70.895Zm-.574 1.65H86.1L70.32 127.37V99.673Zm-.645 0v27.697L53.897 99.673h15.779Zm-9.754-17.579 9.18 15.93H52.965L46.15 86.04c4.949-.36 9.61-1.722 13.77-3.947ZM42.637 52.246h.072l8.75 15.067c-4.089 2.584-7.531 6.028-10.185 10.046l-6.455-11.337 7.89-13.848-.072.072Zm-1.363-.933-7.459 13.059-16.496-28.916 23.955 15.857Zm.287-.574L17.678 34.953h32.848L41.49 50.74h.072Zm19.938.502v.072H43.14l9.324-16.36h13.053c-2.582 4.88-4.088 10.404-4.088 16.216l.071.072Zm35.287.072H78.282c-.072-5.884-1.578-11.48-4.231-16.36h13.412l9.323 16.36Zm1.578-.646L89.4 35.025h33.135l-24.17 15.642Zm.287.574 23.883-15.498-16.352 28.7-7.53-13.202Zm-1.363 1.005 7.961 13.848-6.454 11.336A34.844 34.844 0 0 0 88.61 67.385l8.75-15.14h-.072ZM77.924 62.864v-.144c0-.717-.43-1.363-1.005-1.65a36.87 36.87 0 0 0 1.291-8.036h16.712l-7.818 13.49a34.123 34.123 0 0 0-9.18-3.66Zm-6.599 11.552c.359-.359.502-.79.502-1.292 0-.43-.143-.789-.358-1.076 1.721-2.296 3.084-4.807 4.16-7.462h.286c.79 0 1.435-.502 1.722-1.148a35.48 35.48 0 0 1 9.037 3.587l-7.746 13.49a33.431 33.431 0 0 1-7.674-6.1h.071ZM62.001 63.51c.287.645.933 1.076 1.722 1.076.143 0 .287 0 .43-.072 1.148 2.655 2.582 5.166 4.232 7.39-.216.288-.359.718-.359 1.149 0 .574.215 1.076.646 1.435-2.224 2.44-4.806 4.52-7.675 6.242l-7.889-13.705a31.97 31.97 0 0 1 8.894-3.515Zm.933-2.512c-.646.287-1.076.933-1.076 1.722v.216a35.473 35.473 0 0 0-9.037 3.587l-7.817-13.49H61.57c.144 2.727.646 5.454 1.363 7.965Zm13.125-.215c-.86 0-1.65.574-1.865 1.435-1.363-.144-2.797-.287-4.231-.287-1.507 0-2.941.072-4.375.287a1.935 1.935 0 0 0-1.865-1.435h-.215c-.718-2.511-1.22-5.094-1.363-7.82h15.42a39.553 39.553 0 0 1-1.22 7.82h-.286ZM71.11 71.547c-.287-.215-.717-.359-1.147-.359-.43 0-.79.144-1.076.359-1.65-2.224-3.013-4.664-4.16-7.247.502-.287.86-.861.86-1.435 1.435-.215 2.87-.287 4.304-.287 1.434 0 2.797.072 4.16.287.071.646.43 1.22 1.004 1.578-1.076 2.583-2.439 4.951-4.017 7.175l.072-.071Zm-1.147 24.682-8.607-14.924a33.868 33.868 0 0 0 7.89-6.386c.215.072.501.144.788.144.287 0 .574-.072.86-.216 2.296 2.44 4.95 4.593 7.89 6.243l-8.75 15.14h-.071Zm-2.726-62.926c.79-1.22 1.578-2.368 2.51-3.444.933 1.076 1.793 2.224 2.51 3.444h-5.02Zm6.025 1.65a33.116 33.116 0 0 1 4.303 16.36H62.073v-.072a33.443 33.443 0 0 1 4.16-16.216h7.029v-.072ZM43.784 85.467h-.071c-1.937 0-3.802-.144-5.666-.503.645-1.865 1.506-3.587 2.438-5.31l3.3 5.813Zm-2.295-7.39c2.654-4.09 6.097-7.535 10.185-10.118l7.889 13.633a33.525 33.525 0 0 1-13.842 3.875l-4.16-7.32-.072-.07ZM129.85 51.24c0 11.767-6.025 22.1-15.133 28.198l-7.603-13.345 17.572-30.782c.215.144.502.215.789.215h.072a63.602 63.602 0 0 1 2.868 5.884 33.912 33.912 0 0 1 1.435 9.83Zm-9.18-23.176c1.075 1.435 2.151 2.942 3.084 4.52a1.21 1.21 0 0 0-.216.718H88.323l-7.172-12.556c4.447-2.153 9.467-3.445 14.775-3.445 9.754 0 18.504 4.162 24.744 10.763Zm-41.312-7.103c-3.658 2.009-6.957 4.735-9.682 7.893a35.875 35.875 0 0 0-9.396-7.606l9.61-16.862 9.468 16.503v.072Zm-35.645-3.3c5.307 0 10.327 1.219 14.774 3.372l-7.029 12.27H16.172c0-.216-.072-.431-.216-.647.79-1.291 1.65-2.511 2.51-3.73 6.24-6.889 15.206-11.194 25.175-11.194l.072-.072Zm-32.419 24.18a65.504 65.504 0 0 1 3.085-6.386c.286 0 .573-.072.789-.216l17.571 30.854-7.817 13.704C15.813 73.7 9.86 63.368 9.86 51.6c0-3.373.502-6.673 1.434-9.758Zm114.324 55.105c-.143 0-.287-.072-.43-.072-.143 0-.287 0-.43.072l-9.683-16.934a34.447 34.447 0 0 0 15.42-28.772c0-1.865-.143-3.731-.43-5.525a62.98 62.98 0 0 1 3.443 20.593 63.476 63.476 0 0 1-7.89 30.71v-.072Zm9.611-30.71c0-11.265-2.797-22.028-8.105-31.57.216-.288.359-.718.359-1.077a1.929 1.929 0 0 0-1.936-1.937h-.216a64.358 64.358 0 0 0-9.18-11.552C104.245 8.19 88.538 1.445 71.756 1.015c-.287-.646-.933-1.077-1.722-1.077-.789 0-1.434.431-1.721 1.077-16.783.43-32.49 7.175-44.395 19.086a66.485 66.485 0 0 0-9.18 11.48h-.288a1.929 1.929 0 0 0-1.936 1.937c0 .43.143.861.43 1.148C7.637 44.21 4.84 54.972 4.84 66.237s2.868 22.1 8.176 31.643c-.215.287-.359.717-.359 1.148 0 1.076.86 1.937 1.937 1.937h.287a66.29 66.29 0 0 0 9.108 11.409c11.906 11.91 27.613 18.655 44.396 19.086.287.645.932 1.076 1.721 1.076s1.434-.431 1.721-1.076c16.783-.431 32.49-7.176 44.396-19.086 3.586-3.588 6.67-7.463 9.252-11.696a1.952 1.952 0 0 0 1.793-1.937c0-.287-.072-.574-.144-.79 5.38-9.614 8.248-20.449 8.248-31.786l-.143.072ZM2.76 164.537h3.873c1.004 0 1.793-.287 2.366-.861.574-.574.933-1.363.933-2.368 0-.861-.287-1.578-.79-2.224-.573-.646-1.29-1.005-2.366-1.005H2.76v6.458Zm0 8.539H.68v-16.79h5.953c1.864 0 3.227.502 4.088 1.506.86 1.005 1.362 2.153 1.362 3.445 0 1.435-.502 2.654-1.434 3.587-.932.933-2.223 1.435-3.801 1.435H2.76v6.817ZM14.737 173.076h2.152v-16.79h-2.152v16.79ZM23.2 164.537h3.873c1.004 0 1.793-.287 2.367-.861.574-.574.932-1.363.932-2.368 0-.861-.287-1.578-.788-2.224-.574-.646-1.291-1.005-2.367-1.005H23.2v6.458Zm0 8.539h-2.08v-16.79h5.953c1.865 0 3.228.502 4.088 1.506.861 1.005 1.363 2.153 1.363 3.445 0 1.435-.502 2.654-1.434 3.587-.933.933-2.224 1.435-3.802 1.435H23.2v6.817ZM41.202 166.618l-2.582-8.108-2.582 8.108h5.236-.072Zm4.303 6.458h-2.151l-1.722-4.88h-6.24l-1.506 4.88h-1.793l5.451-16.79h2.367l5.523 16.79h.071ZM63.866 171.21v1.866H53.97v-16.79h2.151v14.924h7.746ZM71.612 171.712c1.434 0 2.582-.645 3.443-2.009.86-1.363 1.219-3.085 1.219-5.166 0-2.152-.43-3.874-1.291-5.094-.86-1.22-2.008-1.794-3.443-1.794-1.434 0-2.582.646-3.442 1.937-.86 1.292-1.291 3.014-1.291 5.095s.43 3.731 1.29 5.022c.861 1.292 2.009 1.938 3.443 1.938l.072.071Zm-.072 1.722c-2.151 0-3.873-.861-5.02-2.511-1.22-1.65-1.793-3.731-1.793-6.171 0-2.511.645-4.663 1.865-6.314 1.29-1.65 2.94-2.511 5.02-2.511 2.08 0 3.73.789 5.02 2.44 1.291 1.65 1.865 3.659 1.865 6.17 0 2.368-.573 4.449-1.793 6.243-1.219 1.793-2.94 2.654-5.092 2.654h-.072ZM91.192 156.286h1.721v10.978c0 2.224-.573 3.802-1.65 4.735-1.075.933-2.51 1.435-4.23 1.435-1.937 0-3.372-.502-4.304-1.506-.933-1.005-1.435-2.584-1.435-4.664v-10.978h2.08v10.978c0 1.291.144 2.224.43 2.726.288.502.79.933 1.363 1.148.646.287 1.291.359 1.937.359 1.29 0 2.295-.359 2.94-1.005.646-.717 1.005-1.793 1.005-3.3v-10.978l.143.072ZM109.266 173.076h-2.008l-8.679-14.638v1.076c0 .431.072.79.072 1.077v12.485H96.93v-16.79h2.653l8.105 13.704v-13.704h1.649v16.79h-.071ZM125.905 164.609v8.682h-1.291l-.574-2.081c-1.004 1.507-2.582 2.224-4.59 2.224-2.223 0-3.945-.861-5.164-2.511-1.219-1.65-1.865-3.659-1.865-6.099 0-2.511.646-4.664 1.937-6.386 1.291-1.722 3.084-2.583 5.307-2.583 3.084 0 5.092 1.651 6.025 4.879l-2.008.503c-.287-1.22-.861-2.153-1.578-2.727-.789-.574-1.65-.861-2.582-.861-1.65 0-2.869.646-3.658 2.009-.789 1.363-1.148 3.014-1.148 5.023 0 2.152.431 3.874 1.291 5.094.861 1.22 2.08 1.866 3.587 1.866 1.147 0 2.151-.359 2.94-1.148.789-.79 1.219-1.866 1.219-3.229v-.933h-4.159v-1.794h6.311v.072ZM140.68 171.21v1.866h-10.902v-16.79h10.615v1.793h-8.535v5.382h6.814v1.722h-6.814v6.027h8.822Z"/></g><defs><clipPath id="a"><path fill="#fff" transform="translate(.68)" d="M0 0h140v173.444H0z"/></clipPath></defs></svg>
